X:1
T:Title
%%score { ( 1 3 ) | ( 2 4 ) }
L:1/8
M:4/4
K:A
V:1 treble nm="Grand Piano"
V:3 treble 
V:2 bass 
V:4 bass 
V:1
 z4 z2[Q:1/4=100] [Ec]2 | [DB]2 [CA]2 [EG]2 z[K:bass] F, | [CE]3[K:treble] [DF] [CE]2 [A,C]2 | %3
 [CE]2 [EA]2 [DG]2 [CA]2 |[M:3/4] [EB]6 |[M:1/4] [Ed]2 |[M:4/4] [Ec]2 BA [EG]2 [DF]2 | %7
 [CE]3 [DF] [CE]2 [A,E]2 | [A,DF]2 [DFB]2 [CEA]2 [B,EG]2 |[M:3/4] [CEA]6 |[M:1/4] G>A | %11
[M:4/4] B6 z2 | A6 z2 | c4 ^d2 [Ad]2 |[M:3/4] [Ge]6 |[M:1/4] [Ge]2 | %16
[M:4/4] [Ae]3 [Ed] [Ec]2 [DEB]2 | [CEA]2 [B,^EG]2 F2 d2 | c4 B4 |[M:3/4] [CA]6 |] %20
V:2
 z4 z2 [A,,A,]2 | [A,,A,]2 [A,,E,]2 [A,,C,]2 .[A,,D,]2 | [A,,A,]3 [A,,A,] [A,,A,]2 [A,,E,]2 | %3
 [A,,A,]2 [C,A,]2 [B,,E,]2 [A,,A,]2 |[M:3/4] [E,G,]6 |[M:1/4] [E,B,]2 | %6
[M:4/4] [A,,A,]2 G,F, [A,,E,]2 [A,,A,]2 | [A,,A,]3 [A,,A,] [A,,A,]2 C,2 | D,2 D,2 E,2 E,2 | %9
[M:3/4] A,,6 |[M:1/4] z2 |[M:4/4] z2 [E,G,]>[E,G,] [E,G,]2 z2 | %12
 z2 [F,C]>[F,C] [F,C]2[K:treble] [F,CF]>[G,CF] | [A,CF]4 [B,A]2[K:bass] [B,,B,]2 |[M:3/4] [E,B,]6 | %15
[M:1/4] [D,B,]2 |[M:4/4] [C,A,]3 [B,,G,] [A,,A,]2 E,2 | F,2 C,2 D,2 B,,2 | %18
 [A,E]2 G,2 [F,D]2 [E,G,]2 |[M:3/4] [A,,A,]6 |] %20
V:3
 x8 | z4 z2 [DF]2[K:bass] | x3[K:treble] x5 | x8 |[M:3/4] x6 |[M:1/4] x2 |[M:4/4] z2 E2 z4 | x8 | %8
 x8 |[M:3/4] x6 |[M:1/4] x2 |[M:4/4] z2 E>E E2 c>B | z2 F>F F2 A>B | x8 |[M:3/4] x6 |[M:1/4] x2 | %16
[M:4/4] x8 | x8 | z2 E2 z2 D2 |[M:3/4] x6 |] %20
V:4
 x8 | x8 | x8 | x8 |[M:3/4] x6 |[M:1/4] x2 |[M:4/4] z2 A,,2 z4 | x8 | x8 |[M:3/4] x6 |[M:1/4] x2 | %11
[M:4/4] x8 | x6[K:treble] x2 | x6[K:bass] x2 |[M:3/4] x6 |[M:1/4] x2 |[M:4/4] x8 | x8 | E,6 z2 | %19
[M:3/4] x6 |] %20

